; generated by Slic3r 1.2.9 on 2018-09-14 at 15:29:05

; external perimeters extrusion width = 0.40mm
; perimeters extrusion width = 0.42mm
; infill extrusion width = 0.42mm
; solid infill extrusion width = 0.42mm
; top infill extrusion width = 0.42mm
; support material extrusion width = 0.40mm

M107
M104 S210 ; set temperature
G28 ; home all axes
G1 Z5 F5000 ; lift nozzle

M109 S210 ; wait for temperature to be reached
G21 ; set units to millimeters
G90 ; use absolute coordinates
M82 ; use absolute distances for extrusion
G92 E0
G1 Z0.300 F6000.000
G1 E-2.00000 F2400.00000
G92 E0
G1 X61.935 Y71.469 F6000.000
G1 E2.00000 F2400.00000
G1 X62.315 Y71.140 E2.03359 F1800.000
G1 X62.645 Y70.905 E2.06062
G1 X63.721 Y70.283 E2.14370
G1 X64.089 Y70.115 E2.17072
G1 X65.264 Y69.708 E2.25377
G1 X65.657 Y69.613 E2.28078
G1 X66.731 Y69.446 E2.35340
G1 X67.500 Y69.407 E2.40482
G1 X132.652 Y69.409 E6.75736
G1 X133.532 Y69.476 E6.81627 F1800.000
G1 X133.932 Y69.534 E6.84328
G1 X135.139 Y69.827 E6.92626
G1 X135.521 Y69.959 E6.95327
G1 X136.652 Y70.475 E7.03629
G1 X137.002 Y70.678 E7.06331
G1 X138.014 Y71.398 E7.14630
G1 X138.319 Y71.663 E7.17332
G1 X139.177 Y72.562 E7.25633
G1 X139.427 Y72.880 E7.28334
G1 X140.098 Y73.925 E7.36632
G1 X140.284 Y74.285 E7.39339
G1 X140.745 Y75.438 E7.47636
G1 X140.859 Y75.826 E7.50337
G1 X141.094 Y77.046 E7.58637
G1 X141.163 Y78.070 E7.65492
G1 X141.163 Y121.930 E10.58500
G1 X141.095 Y122.954 E10.65354
G1 X140.859 Y124.174 E10.73656
G1 X140.745 Y124.562 E10.76357
G1 X140.284 Y125.715 E10.84657
G1 X140.098 Y126.075 E10.87358
G1 X139.427 Y127.120 E10.95655
G1 X139.252 Y127.342 E10.97548
G1 X138.319 Y128.337 E11.06658
G1 X138.014 Y128.602 E11.09360
G1 X137.002 Y129.322 E11.17657
G1 X136.651 Y129.525 E11.20360
G1 X135.521 Y130.041 E11.28662
G1 X135.139 Y130.173 E11.31364
G1 X133.932 Y130.466 E11.39661
G1 X133.532 Y130.524 E11.42362
G1 X132.754 Y130.588 E11.47576
G1 X67.500 Y130.593 E15.83507
G1 X66.731 Y130.554 E15.88649
G1 X65.657 Y130.387 E15.95911
G1 X65.264 Y130.292 E15.98613
G1 X64.089 Y129.885 E16.06918
G1 X63.722 Y129.717 E16.09619
G1 X62.644 Y129.095 E16.17929
G1 X62.315 Y128.860 E16.20630
G1 X61.378 Y128.048 E16.28914
G1 X61.098 Y127.755 E16.31625
G1 X60.330 Y126.778 E16.39923
G1 X60.111 Y126.438 E16.42624
G1 X59.542 Y125.334 E16.50924
G1 X59.392 Y124.958 E16.53627
G1 X59.042 Y123.766 E16.61929
G1 X58.965 Y123.369 E16.64630
G1 X58.855 Y122.444 E16.70856
G1 X58.837 Y121.930 E16.74288
G1 X58.837 Y78.070 E19.67297
G1 X58.854 Y77.557 E19.70725
G1 X58.965 Y76.632 E19.76952
G1 X59.042 Y76.233 E19.79666
G1 X59.392 Y75.042 E19.87960
G1 X59.542 Y74.666 E19.90661
G1 X60.111 Y73.562 E19.98961
G1 X60.330 Y73.222 E20.01663
G1 X61.099 Y72.245 E20.09967
G1 X61.378 Y71.952 E20.12668
G1 X61.890 Y71.508 E20.17195
G1 E18.17195 F2400.00000
G92 E0
G1 X132.935 Y122.540 F6000.000
G1 E2.00000 F2400.00000
G1 X132.811 Y122.612 E2.00952 F1800.000
G1 X132.692 Y122.653 E2.01793
G1 X132.418 Y122.686 E2.03636
G1 X67.549 Y122.686 E6.36999
G1 X67.255 Y122.638 E6.38989
G1 X67.125 Y122.579 E6.39940
G1 X67.009 Y122.496 E6.40892
G1 X66.911 Y122.393 E6.41845
G1 X66.834 Y122.273 E6.42797
G1 X66.781 Y122.141 E6.43748
G1 X66.744 Y121.897 E6.45395
G1 X66.744 Y78.103 E9.37968
G1 X66.781 Y77.859 E9.39614
G1 X66.834 Y77.727 E9.40566
G1 X66.911 Y77.607 E9.41518
G1 X67.009 Y77.504 E9.42470
G1 X67.125 Y77.421 E9.43423
G1 X67.255 Y77.362 E9.44373
G1 X67.549 Y77.314 E9.46363
G1 X132.478 Y77.316 E13.80126
G1 X132.682 Y77.344 E13.81501
G1 X132.811 Y77.388 E13.82414
G1 X132.935 Y77.460 E13.83366
G1 X133.042 Y77.553 E13.84317
G1 X133.130 Y77.665 E13.85269
G1 X133.196 Y77.791 E13.86221
G1 X133.236 Y77.928 E13.87173
G1 X133.256 Y78.135 E13.88563
G1 X133.256 Y121.865 E16.80699
G1 X133.236 Y122.072 E16.82089
G1 X133.196 Y122.208 E16.83041
G1 X133.130 Y122.335 E16.83993
G1 X132.980 Y122.501 E16.85489
G1 X66.856 Y76.955 F6000.000
G1 X67.079 Y76.853 E16.87124 F1800.000
G1 X67.326 Y76.793 E16.88826
G1 X67.530 Y76.779 E16.90188
G1 X132.514 Y76.780 E21.24320
G1 X132.807 Y76.820 E21.26292
G1 X133.035 Y76.899 E21.27903
G1 X133.247 Y77.021 E21.29538
G1 X133.432 Y77.182 E21.31174
G1 X133.583 Y77.374 E21.32809
G1 X133.695 Y77.591 E21.34444
G1 X133.764 Y77.826 E21.36079
G1 X133.791 Y78.110 E21.37982
G1 X133.791 Y121.890 E24.30458
G1 X133.764 Y122.174 E24.32360
G1 X133.695 Y122.408 E24.33995
G1 X133.583 Y122.626 E24.35631
G1 X133.432 Y122.818 E24.37266
G1 X133.247 Y122.979 E24.38901
G1 X133.035 Y123.101 E24.40537
G1 X132.813 Y123.178 E24.42104
G1 X132.450 Y123.221 E24.44545
G1 X67.530 Y123.221 E28.78249
G1 X67.326 Y123.207 E28.79611
G1 X67.079 Y123.147 E28.81313
G1 X66.856 Y123.045 E28.82947
G1 X66.657 Y122.903 E28.84583
G1 X66.488 Y122.726 E28.86218
G1 X66.356 Y122.520 E28.87854
G1 X66.265 Y122.293 E28.89489
G1 X66.209 Y121.910 E28.92072
G1 X66.209 Y78.090 E31.84815
G1 X66.265 Y77.707 E31.87398
G1 X66.356 Y77.480 E31.89033
G1 X66.488 Y77.274 E31.90668
G1 X66.657 Y77.097 E31.92304
G1 X66.807 Y76.990 E31.93539
G1 X66.634 Y76.468 F6000.000
G1 X66.903 Y76.345 E31.95515 F1800.000
G1 X67.244 Y76.262 E31.97857
G1 X67.511 Y76.243 E31.99646
G1 X132.550 Y76.245 E36.34146
G1 X132.932 Y76.296 E36.36716 F1800.000
G1 X133.258 Y76.409 E36.39026
G1 X133.559 Y76.583 E36.41344
G1 X133.821 Y76.810 E36.43663
G1 X134.036 Y77.083 E36.45982
G1 X134.195 Y77.392 E36.48300
G1 X134.293 Y77.725 E36.50619
G1 X134.327 Y78.084 E36.53033
G1 X134.327 Y121.916 E39.45851
G1 X134.293 Y122.275 E39.48265
G1 X134.195 Y122.608 E39.50583
G1 X134.036 Y122.917 E39.52902
G1 X133.821 Y123.190 E39.55221
G1 X133.559 Y123.417 E39.57539
G1 X133.258 Y123.591 E39.59858
G1 X132.934 Y123.703 E39.62152
G1 X132.482 Y123.757 E39.65191
G1 X67.511 Y123.757 E43.99235
G1 X67.244 Y123.738 E44.01024
G1 X66.903 Y123.655 E44.03366
G1 X66.587 Y123.511 E44.05684
G1 X66.305 Y123.310 E44.08003
G1 X66.065 Y123.058 E44.10322
G1 X65.877 Y122.766 E44.12641
G1 X65.748 Y122.444 E44.14959
G1 X65.681 Y122.097 E44.17325
G1 X65.673 Y121.923 E44.18487
G1 X65.673 Y78.077 E47.11400
G1 X65.681 Y77.904 E47.12561
G1 X65.748 Y77.556 E47.14928
G1 X65.877 Y77.234 E47.17246
G1 X66.065 Y76.942 E47.19565
G1 X66.305 Y76.690 E47.21883
G1 X66.580 Y76.494 E47.24143
G1 X66.884 Y76.626 F6000.000
G1 X67.103 Y121.945 F6000.000
G1 X67.484 Y122.326 E47.27761 F1800.000
G1 X68.284 Y122.364 E47.33138
G1 X67.066 Y121.146 E47.44706
G1 X67.066 Y120.385 E47.49823
G1 X69.045 Y122.364 E47.68628
G1 X69.807 Y122.364 E47.73745
G1 X67.066 Y119.623 E47.99786
G1 X67.066 Y118.861 E48.04903
G1 X70.569 Y122.364 E48.38180
G1 X71.330 Y122.364 E48.43297
G1 X67.066 Y118.100 E48.83811
G1 X67.066 Y117.338 E48.88928
G1 X72.092 Y122.364 E49.36679
G1 X72.854 Y122.364 E49.41795
G1 X67.066 Y116.576 E49.96782
G1 X67.066 Y115.814 E50.01899
G1 X73.616 Y122.364 E50.64122
G1 X74.377 Y122.364 E50.69239
G1 X67.066 Y115.053 E51.38699
G1 X67.066 Y114.291 E51.43816
G1 X75.139 Y122.364 E52.20512
G1 X75.901 Y122.364 E52.25629
G1 X67.066 Y113.529 E53.09562
G1 X67.066 Y112.768 E53.14679
G1 X76.662 Y122.364 E54.05848
G1 X77.424 Y122.364 E54.10965
G1 X67.066 Y112.006 E55.09370
G1 X67.066 Y111.244 E55.14487
G1 X78.186 Y122.364 E56.20129
G1 X78.947 Y122.364 E56.25246
G1 X67.066 Y110.483 E57.38125
G1 X67.066 Y109.721 E57.43241
G1 X79.709 Y122.364 E58.63356
G1 X80.471 Y122.364 E58.68473
G1 X67.066 Y108.959 E59.95825
G1 X67.066 Y108.197 E60.00941
G1 X81.233 Y122.364 E61.35529
G1 X81.994 Y122.364 E61.40646
G1 X67.066 Y107.436 E62.82470
G1 X67.066 Y106.674 E62.87587
G1 X82.756 Y122.364 E64.36648
G1 X83.518 Y122.364 E64.41765
G1 X67.066 Y105.912 E65.98062
G1 X67.066 Y105.151 E66.03179
G1 X84.279 Y122.364 E67.66713
G1 X85.041 Y122.364 E67.71829
G1 X67.066 Y104.389 E69.42600
G1 X67.066 Y103.627 E69.47716
G1 X85.803 Y122.364 E71.25723
G1 X86.564 Y122.364 E71.30840
G1 X67.066 Y102.866 E73.16083
G1 X67.066 Y102.104 E73.21200
G1 X87.326 Y122.364 E75.13679
G1 X88.088 Y122.364 E75.18796
G1 X67.066 Y101.342 E77.18512
G1 X67.066 Y100.580 E77.23629
G1 X88.850 Y122.364 E79.30581
G1 X89.611 Y122.364 E79.35698
G1 X67.066 Y99.819 E81.49887
G1 X67.066 Y99.057 E81.55004
G1 X90.373 Y122.364 E83.76429
G1 X91.135 Y122.364 E83.81546
G1 X67.066 Y98.295 E86.10207
G1 X67.066 Y97.534 E86.15324
G1 X91.896 Y122.364 E88.51222
G1 X92.658 Y122.364 E88.56339
G1 X67.066 Y96.772 E90.99474
G1 X67.066 Y96.010 E91.04591
G1 X93.420 Y122.364 E93.54962
G1 X94.181 Y122.364 E93.60079
G1 X67.066 Y95.249 E96.17686
G1 X67.066 Y94.487 E96.22803
G1 X94.943 Y122.364 E98.87647
G1 X95.705 Y122.364 E98.92764
G1 X67.066 Y93.725 E101.64844
G1 X67.066 Y92.963 E101.69961
G1 X96.467 Y122.364 E104.49278
G1 X97.228 Y122.364 E104.54395
G1 X67.066 Y92.202 E107.40948
G1 X67.066 Y91.440 E107.46065
G1 X97.990 Y122.364 E110.39854
G1 X98.752 Y122.364 E110.44971
G1 X67.066 Y90.678 E113.45997
G1 X67.066 Y89.917 E113.51114
G1 X99.513 Y122.364 E116.59377
G1 X100.275 Y122.364 E116.64494
G1 X67.066 Y89.155 E119.79993
G1 X67.066 Y88.393 E119.85110
G1 X101.037 Y122.364 E123.07845
G1 X101.799 Y122.364 E123.12962
G1 X67.066 Y87.631 E126.42934
G1 X67.066 Y86.870 E126.48051
G1 X102.560 Y122.364 E129.85259
G1 X103.322 Y122.364 E129.90376
G1 X67.066 Y86.108 E133.34821
G1 X67.066 Y85.346 E133.39938
G1 X104.084 Y122.364 E136.91619
G1 X104.845 Y122.364 E136.96736
G1 X67.066 Y84.585 E140.55654
G1 X67.066 Y83.823 E140.60771
G1 X105.607 Y122.364 E144.26925
G1 X106.369 Y122.364 E144.32042
G1 X67.066 Y83.061 E148.05433
G1 X67.066 Y82.300 E148.10550
G1 X107.130 Y122.364 E151.91177
G1 X107.892 Y122.364 E151.96294
G1 X67.066 Y81.538 E155.84157
G1 X67.066 Y80.776 E155.89274
G1 X108.654 Y122.364 E159.84374
G1 X109.416 Y122.364 E159.89491
G1 X67.066 Y80.014 E163.91827
G1 X67.066 Y79.253 E163.96944
G1 X110.177 Y122.364 E168.06517
G1 X110.939 Y122.364 E168.11634
G1 X67.066 Y78.491 E172.28443
G1 X67.134 Y77.797 E172.33128
G1 X111.701 Y122.364 E176.56530
G1 X112.462 Y122.364 E176.61647
G1 X67.734 Y77.636 E180.86580
G1 X68.496 Y77.636 E180.91697
G1 X113.224 Y122.364 E185.16630
G1 X113.986 Y122.364 E185.21747
G1 X69.258 Y77.636 E189.46679
G1 X70.019 Y77.636 E189.51796
G1 X114.747 Y122.364 E193.76729
G1 X115.509 Y122.364 E193.81846
G1 X70.781 Y77.636 E198.06778
G1 X71.543 Y77.636 E198.11895
G1 X116.271 Y122.364 E202.36827
G1 X117.033 Y122.364 E202.41944
G1 X72.305 Y77.636 E206.66875
G1 X73.066 Y77.636 E206.71993
G1 X117.794 Y122.364 E210.96924
G1 X118.556 Y122.364 E211.02041
G1 X73.828 Y77.636 E215.26972
G1 X74.590 Y77.636 E215.32090
G1 X119.318 Y122.364 E219.57021
G1 X120.079 Y122.364 E219.62138
G1 X75.351 Y77.636 E223.87069
G1 X76.113 Y77.636 E223.92186
G1 X120.841 Y122.364 E228.17117
G1 X121.603 Y122.364 E228.22234
G1 X76.875 Y77.636 E232.47164
G1 X77.637 Y77.636 E232.52281
G1 X122.364 Y122.364 E236.77212
G1 X123.126 Y122.364 E236.82329
G1 X78.398 Y77.636 E241.07259
G1 X79.160 Y77.636 E241.12376
G1 X123.888 Y122.364 E245.37306
G1 X124.650 Y122.364 E245.42423
G1 X79.922 Y77.636 E249.67353
G1 X80.684 Y77.636 E249.72470
G1 X125.411 Y122.364 E253.97400
G1 X126.173 Y122.364 E254.02517
G1 X81.445 Y77.636 E258.27446
G1 X82.207 Y77.636 E258.32564
G1 X126.935 Y122.364 E262.57493
G1 X127.696 Y122.364 E262.62610
G1 X82.969 Y77.636 E266.87539
G1 X83.730 Y77.636 E266.92656
G1 X128.458 Y122.364 E271.17585
G1 X129.220 Y122.364 E271.22702
G1 X84.492 Y77.636 E275.47631
G1 X85.254 Y77.636 E275.52748
G1 X129.981 Y122.364 E279.77677
G1 X130.743 Y122.364 E279.82794
G1 X86.016 Y77.636 E284.07722
G1 X86.777 Y77.636 E284.12839
G1 X131.505 Y122.364 E288.37767
G1 X132.267 Y122.364 E288.42884
G1 X87.539 Y77.636 E292.67812
G1 X88.301 Y77.636 E292.72929
G1 X132.867 Y122.203 E296.96327
G1 X132.934 Y121.508 E297.01017
G1 X89.062 Y77.637 E301.17813
G1 X89.824 Y77.637 E301.22930
G1 X132.934 Y120.746 E305.32489
G1 X132.934 Y119.985 E305.37606
G1 X90.586 Y77.637 E309.39929
G1 X91.348 Y77.637 E309.45046
G1 X132.934 Y119.223 E313.40132
G1 X132.934 Y118.461 E313.45249
G1 X92.109 Y77.637 E317.33099
G1 X92.871 Y77.637 E317.38216
G1 X132.934 Y117.700 E321.18828
G1 X132.934 Y116.938 E321.23945
G1 X93.633 Y77.637 E324.97322
G1 X94.395 Y77.637 E325.02439
G1 X132.934 Y116.176 E328.68578
G1 X132.934 Y115.414 E328.73695
G1 X95.156 Y77.637 E332.32598
G1 X95.918 Y77.637 E332.37715
G1 X132.934 Y114.653 E335.89381
G1 X132.934 Y113.891 E335.94498
G1 X96.680 Y77.637 E339.38928
G1 X97.441 Y77.637 E339.44045
G1 X132.934 Y113.129 E342.81238
G1 X132.934 Y112.368 E342.86355
G1 X98.203 Y77.637 E346.16311
G1 X98.965 Y77.637 E346.21428
G1 X132.934 Y111.606 E349.44148
G1 X132.934 Y110.844 E349.49265
G1 X99.727 Y77.637 E352.64748
G1 X100.488 Y77.637 E352.69865
G1 X132.934 Y110.083 E355.78112
G1 X132.934 Y109.321 E355.83229
G1 X101.250 Y77.637 E358.84238
G1 X102.012 Y77.637 E358.89355
G1 X132.934 Y108.559 E361.83129
G1 X132.934 Y107.797 E361.88246
G1 X102.773 Y77.637 E364.74782
G1 X103.535 Y77.637 E364.79899
G1 X132.934 Y107.036 E367.59199
G1 X132.934 Y106.274 E367.64316
G1 X104.297 Y77.637 E370.36379
G1 X105.059 Y77.637 E370.41496
G1 X132.934 Y105.512 E373.06323
G1 X132.934 Y104.751 E373.11440
G1 X105.820 Y77.637 E375.69030
G1 X106.582 Y77.637 E375.74147
G1 X132.934 Y103.989 E378.24500
G1 X132.934 Y103.227 E378.29617
G1 X107.344 Y77.637 E380.72734
G1 X108.106 Y77.637 E380.77851
G1 X132.934 Y102.466 E383.13731
G1 X132.934 Y101.704 E383.18848
G1 X108.867 Y77.637 E385.47492
G1 X109.629 Y77.637 E385.52609
G1 X132.934 Y100.942 E387.74016
G1 X132.934 Y100.180 E387.79133
G1 X110.391 Y77.637 E389.93303
G1 X111.152 Y77.637 E389.98420
G1 X132.934 Y99.419 E392.05353
G1 X132.934 Y98.657 E392.10470
G1 X111.914 Y77.637 E394.10167
G1 X112.676 Y77.637 E394.15284
G1 X132.934 Y97.895 E396.07745
G1 X132.934 Y97.134 E396.12862
G1 X113.438 Y77.637 E397.98085
G1 X114.199 Y77.637 E398.03202
G1 X132.934 Y96.372 E399.81189
G1 X132.934 Y95.610 E399.86306
G1 X114.961 Y77.637 E401.57057
G1 X115.723 Y77.637 E401.62174
G1 X132.934 Y94.848 E403.25688
G1 X132.934 Y94.087 E403.30805
G1 X116.484 Y77.637 E404.87082
G1 X117.246 Y77.637 E404.92199
G1 X132.934 Y93.325 E406.41239
G1 X132.934 Y92.563 E406.46356
G1 X118.008 Y77.637 E407.88160
G1 X118.770 Y77.637 E407.93277
G1 X132.934 Y91.802 E409.27844
G1 X132.934 Y91.040 E409.32961
G1 X119.531 Y77.637 E410.60292
G1 X120.293 Y77.637 E410.65409
G1 X132.934 Y90.278 E411.85503
G1 X132.934 Y89.517 E411.90620
G1 X121.055 Y77.637 E413.03477
G1 X121.816 Y77.637 E413.08594
G1 X132.934 Y88.755 E414.14215
G1 X132.934 Y87.993 E414.19332
G1 X122.578 Y77.637 E415.17716
G1 X123.340 Y77.637 E415.22833
G1 X132.934 Y87.231 E416.13980
G1 X132.934 Y86.470 E416.19097
G1 X124.102 Y77.637 E417.03008
G1 X124.863 Y77.637 E417.08125
G1 X132.934 Y85.708 E417.84799
G1 X132.934 Y84.946 E417.89916
G1 X125.625 Y77.637 E418.59354
G1 X126.387 Y77.637 E418.64471
G1 X132.934 Y84.185 E419.26672
G1 X132.934 Y83.423 E419.31789
G1 X127.149 Y77.637 E419.86753
G1 X127.910 Y77.637 E419.91870
G1 X132.934 Y82.661 E420.39598
G1 X132.934 Y81.900 E420.44715
G1 X128.672 Y77.638 E420.85206
G1 X129.434 Y77.638 E420.90323
G1 X132.934 Y81.138 E421.23577
G1 X132.934 Y80.376 E421.28694
G1 X130.195 Y77.638 E421.54712
G1 X130.957 Y77.638 E421.59829
G1 X132.934 Y79.614 E421.78610
G1 X132.934 Y78.853 E421.83727
G1 X131.719 Y77.638 E421.95271
G1 X132.515 Y77.672 E422.00624
G1 X132.896 Y78.053 E422.04243
G1 Z0.300 F6000.000
G1 Z0.700 F6000.000
G1 X66.667 Y76.541 F6000.000
G1 X66.929 Y76.421 E422.05844 F1800.000
G1 X67.262 Y76.340 E422.07745
G1 X67.531 Y76.321 E422.09244
G1 X132.473 Y76.322 E425.70134
G1 X132.919 Y76.377 E425.72634 F1800.000
G1 X133.225 Y76.483 E425.74430
G1 X133.512 Y76.649 E425.76274
G1 X133.763 Y76.866 E425.78117
G1 X133.968 Y77.127 E425.79961
G1 X134.120 Y77.421 E425.81804
G1 X134.213 Y77.740 E425.83648
G1 X134.249 Y78.111 E425.85720
G1 X134.249 Y121.889 E428.28999
G1 X134.213 Y122.260 E428.31071
G1 X134.120 Y122.579 E428.32915
G1 X133.968 Y122.873 E428.34758
G1 X133.763 Y123.134 E428.36602
G1 X133.512 Y123.351 E428.38445
G1 X133.225 Y123.517 E428.40289
G1 X132.921 Y123.622 E428.42075
G1 X132.449 Y123.679 E428.44718
G1 X67.531 Y123.679 E432.05475
G1 X67.262 Y123.660 E432.06973
G1 X66.929 Y123.579 E432.08874
G1 X66.628 Y123.441 E432.10718
G1 X66.357 Y123.249 E432.12562
